icon/lg/gravatar.svg

<?xml version="1.0" encoding="UTF-8"?>
<svg viewBox="0 0 512 96" version="1.1" xmlns="http://www.w3.org/2000/svg" preserveAspectRatio="xMidYMid" height="1em" width="1em">
  <g>
    <path d="M38.0387049,9.50585215 L38.0387049,42.7886616 C38.0387049,48.0385988 42.2946198,52.2945138 47.544557,52.2945138 C52.7944942,52.2945138 57.0504092,48.0385988 57.0504092,42.7886616 L57.0504092,20.6459079 C69.0361415,24.8715304 76.7820322,36.5151735 76.0477401,49.2027454 C75.313448,61.8903174 66.2760236,72.5626276 53.8828335,75.3773222 C41.4896434,78.1920168 28.7288977,72.4704248 22.5862247,61.3447232 C16.4435517,50.2190216 18.400055,36.3718075 27.3846838,27.3834755 C31.0354658,23.6562579 31.0045331,17.6844964 27.3153353,13.9952987 C23.6261375,10.3061009 17.6543761,10.2751682 13.9271584,13.9259501 C-2.1127446,29.9656568 -4.58841573,55.1022948 8.01419995,73.9629617 C20.6168156,92.8236286 44.7876118,100.155213 65.7443694,91.4739118 C86.701127,82.7926106 98.606927,60.5163578 94.1804973,38.2687197 C89.7540676,16.0210816 70.2282665,-0.00148388521 47.544557,0 C42.2946198,0 38.0387049,4.25591497 38.0387049,9.50585215 Z" fill="#4678EB"/>
    <path d="M162.396665,85.0138048 C170.307055,85.0138048 178.051912,83.122496 185.624192,79.3363563 C186.77236,78.7939697 187.702166,77.96278 188.413608,76.849831 C189.12505,75.7333601 189.477249,74.4654435 189.477249,73.0460814 L189.477249,50.019308 C189.477249,48.6668637 189.005302,47.5186948 188.057887,46.5712794 C187.153764,45.6424563 185.905858,45.1287627 184.609858,45.1519172 L164.626085,45.1519172 C163.477916,45.1519172 162.498802,45.5569461 161.685223,46.3705259 C160.875165,47.1805837 160.470136,48.159697 160.470136,49.3113879 C160.470136,50.4595568 160.875165,51.4421921 161.685223,52.2522499 C162.49528,53.0623077 163.477916,53.4708586 164.626085,53.4708586 L181.362583,53.4708586 L181.362583,71.8274727 C175.919323,74.7953468 169.811418,76.3320182 163.611751,76.2933565 C157.934303,76.2933565 153.01056,75.0923578 148.854612,72.6903603 C144.797821,70.3950821 141.487904,66.9800108 139.320583,62.8534411 C137.122861,58.6939704 136.024,53.9780252 136.024,48.7020836 C136.024,42.9541952 137.189779,38.0022767 139.521337,33.839284 C141.742296,29.7914622 145.112572,26.4922681 149.206811,24.3580858 C153.334583,22.1955836 157.966001,21.1108106 163.104585,21.1108106 C166.823807,21.1108106 170.275357,21.5862793 173.452193,22.5336947 C176.629028,23.4775882 179.809385,24.9004723 182.986221,26.7953031 C183.662443,27.1298922 184.373885,27.2989478 185.117025,27.2989478 C186.402551,27.2989478 187.434495,26.8939189 188.209332,26.0838611 C188.987692,25.2738033 189.378633,24.287646 189.378633,23.1394771 C189.378633,22.3294193 189.174358,21.5862793 188.769329,20.9100571 C188.441793,20.3108513 187.949173,19.8182312 187.349967,19.490695 C183.784262,17.2311732 179.951006,15.4245738 175.938718,14.1126156 C171.980001,12.8270891 167.366193,12.1860869 162.090252,12.1860869 C155.532305,12.1860869 149.566054,13.7075867 144.187974,16.7505864 C138.813417,19.7935862 134.569418,24.0868925 131.459501,29.6340274 C128.349583,35.1776403 126.792864,41.5348331 126.792864,48.7020836 C126.792864,55.7354984 128.279143,62.0081634 131.255225,67.5165564 C134.129624,72.9251471 138.494405,77.3962664 143.832253,80.3999974 C149.24203,83.478217 155.430168,85.0138048 162.393143,85.0138048 L162.396665,85.0138048 Z M205.822807,84.5066382 C207.108333,84.5066382 208.207194,84.0699114 209.11939,83.1894138 C210.031585,82.3089162 210.489444,81.2276651 210.489444,79.9421386 L210.489444,49.1071125 C212.217697,46.4296076 214.544765,44.1905578 217.286885,42.5667762 C219.990678,40.9777295 223.075571,40.1535494 226.211609,40.1823887 L226.718776,40.1823887 C228.07122,40.1823887 229.184169,39.7773598 230.064667,38.96378 C230.945164,38.1537222 231.381891,37.1041691 231.381891,35.8186426 C231.381891,34.5366381 230.959252,33.451865 230.113975,32.5748894 C229.284813,31.7012972 228.123516,31.2211578 226.919529,31.254143 L226.412363,31.254143 C220.530639,31.254143 215.222999,34.4345004 210.489444,40.7916931 L210.489444,36.4279469 C210.489444,35.1424204 210.031585,34.0435594 209.115868,33.1313639 C208.254154,32.2399948 207.062483,31.7442088 205.822807,31.7613096 C204.53728,31.7613096 203.456029,32.2191684 202.575531,33.1348859 C201.695034,34.0435594 201.258307,35.1424204 201.258307,36.4279469 L201.258307,79.9421386 C201.258307,81.2276651 201.698556,82.3089162 202.575531,83.1894138 C203.456029,84.0699114 204.53728,84.5066382 205.822807,84.5066382 L205.822807,84.5066382 Z M250.122402,85.0138048 C257.832039,85.0138048 264.189232,82.4427518 269.19398,77.3076898 L269.19398,79.9421386 C269.19398,81.2276651 269.630707,82.3089162 270.511205,83.1894138 C271.391702,84.0699114 272.472953,84.5066382 273.75848,84.5066382 C275.040484,84.5066382 276.139345,84.0699114 277.055063,83.1894138 C277.967258,82.3089162 278.421595,81.2276651 278.421595,79.9421386 L278.421595,51.2379167 C278.421595,47.7229702 277.660845,44.4580851 276.139345,41.4467833 C274.617846,38.4390035 272.251068,35.9876981 269.039013,34.0963893 C265.826957,32.2015584 261.889372,31.254143 257.222735,31.254143 C251.270571,31.254143 245.424067,32.4727517 239.676179,34.9064471 C237.915183,35.6495871 237.038208,36.9351136 237.038208,38.7630266 C237.038208,39.8442777 237.411539,40.7564732 238.154679,41.4996131 C238.897819,42.2427531 239.774794,42.6160841 240.79265,42.6160841 C241.130761,42.6160841 241.567487,42.5456443 242.109874,42.4118087 C244.543569,41.6017509 246.758901,40.9924465 248.752348,40.5874176 C251.008696,40.1574174 253.302275,39.9533078 255.599097,39.9781133 C260.265735,39.9781133 263.699675,40.9607486 265.897397,42.9189753 C268.095119,44.880724 269.19398,48.0963012 269.19398,52.5551411 L269.19398,53.3651989 L256.919844,53.3651989 C249.277124,53.3651989 243.479928,54.8550008 239.521211,57.8310827 C235.566016,60.8071646 233.590179,64.7975798 233.590179,69.7988062 C233.590179,72.8418059 234.333319,75.5326066 235.819599,77.8641643 C237.284585,80.1771015 239.378672,82.0243942 241.856291,83.1894138 C244.392124,84.4080225 247.14632,85.0138048 250.122402,85.0138048 Z M253.573953,76.8991389 C249.717373,76.8991389 246.963177,76.1595209 245.304319,74.6697189 C243.648984,73.179917 242.821316,71.2181683 242.821316,68.7879949 C242.821316,63.4451355 247.928202,60.7719447 258.13493,60.7719447 L269.19398,60.7719447 L269.19398,69.2951616 C267.217297,71.5223948 264.842857,73.3617496 262.192263,74.7190268 C259.541034,76.1433389 256.580014,76.8932703 253.570431,76.9026609 L253.573953,76.8991389 Z M309.231967,84.5066382 C310.450576,84.5066382 311.567047,84.1544392 312.577858,83.4429971 C313.595714,82.731555 314.338854,81.8369695 314.8108,80.7557184 L332.463016,38.5587511 C332.768948,37.8881943 332.941217,37.1644261 332.970183,36.4279469 C332.970183,35.1424204 332.529934,34.0435594 331.649436,33.1313639 C330.810927,32.2360204 329.632142,31.7381407 328.405683,31.7613096 C327.525186,31.7613096 326.697518,32.0148929 325.919158,32.5220596 C325.14432,33.0292262 324.580802,33.6561405 324.246213,34.3992805 L308.724801,73.7575234 L293.206911,34.3992805 C292.84242,33.624999 292.26133,32.9729543 291.533966,32.5220596 C290.798748,32.0278357 289.933329,31.7630619 289.04744,31.7613096 C287.761914,31.7613096 286.680663,32.2191684 285.803687,33.1348859 C284.923189,34.0435594 284.482941,35.1424204 284.482941,36.4279469 C284.482941,37.0372513 284.651996,37.7486933 284.990107,38.5587511 L302.638801,80.7521964 C303.11427,81.8369695 303.85741,82.731555 304.871743,83.4429971 C305.886076,84.1544392 307.002547,84.5066382 308.217634,84.5066382 L309.231967,84.5066382 Z M353.027918,85.0138048 C360.737555,85.0138048 367.091226,82.4427518 372.095974,77.3076898 L372.095974,79.9421386 C372.095974,81.2276651 372.536223,82.3089162 373.416721,83.1894138 C374.297218,84.0699114 375.374948,84.5066382 376.660474,84.5066382 C377.946001,84.5066382 379.044862,84.0699114 379.957057,83.1894138 C380.872775,82.3089162 381.327111,81.2276651 381.327111,79.9421386 L381.327111,51.2379167 C381.327111,47.7229702 380.566361,44.4580851 379.044862,41.4467833 C377.523362,38.4390035 375.156584,35.9876981 371.944529,34.0963893 C368.732474,32.2015584 364.794888,31.254143 360.128251,31.254143 C354.176087,31.254143 348.329583,32.4727517 342.578173,34.9064471 C340.820699,35.6495871 339.943724,36.9351136 339.943724,38.7630266 C339.943724,39.8442777 340.313533,40.7564732 341.056673,41.4996131 C341.803335,42.2427531 342.68031,42.6160841 343.698166,42.6160841 C344.032755,42.6160841 344.473004,42.5456443 345.01539,42.4118087 C347.445563,41.6017509 349.664417,40.9924465 351.657864,40.5874176 C353.914212,40.1574174 356.207791,39.9533078 358.504613,39.9781133 C363.171251,39.9781133 366.605191,40.9607486 368.799391,42.9189753 C370.997113,44.880724 372.095974,48.0963012 372.095974,52.5551411 L372.095974,53.3651989 L359.821838,53.3651989 C352.179119,53.3651989 346.381922,54.8550008 342.426727,57.8310827 C338.471532,60.8071646 336.492173,64.7975798 336.492173,69.7988062 C336.492173,72.8418059 337.238835,75.5326066 338.725115,77.8641643 C340.190101,80.1771015 342.284188,82.0243942 344.761807,83.1894138 C347.29764,84.4080225 350.051836,85.0138048 353.027918,85.0138048 L353.027918,85.0138048 Z M356.475947,76.8991389 C352.622889,76.8991389 349.865171,76.1595209 348.209835,74.6697189 C346.5545,73.179917 345.72331,71.2181683 345.72331,68.7879949 C345.72331,63.4451355 350.830196,60.7719447 361.040447,60.7719447 L372.099496,60.7719447 L372.099496,69.2951616 C370.122813,71.5223948 367.748373,73.3617496 365.097779,74.7190268 C362.44655,76.1433389 359.48553,76.8932703 356.475947,76.9026609 L356.475947,76.8991389 Z M410.313093,85.0138048 C413.285652,85.0138048 416.092679,84.4080225 418.73065,83.1894138 C420.287369,82.379356 421.062207,81.1959672 421.062207,79.6392474 C421.07672,78.6582771 420.671809,77.7177579 419.949258,77.0541065 C419.280194,76.3743358 418.367221,75.9901263 417.413425,75.9869434 C416.937957,75.9869434 416.550538,76.0221633 416.244124,76.0890811 C415.95679,76.1534202 415.67031,76.2215179 415.384759,76.2933565 C414.069217,76.6926142 412.702217,76.8967147 411.327426,76.8991389 C409.432595,76.8991389 407.861787,76.5469398 406.607959,75.8354978 C405.357652,75.1240557 404.73426,73.4511103 404.73426,70.8131394 L404.73426,40.1859107 L416.194817,40.1859107 C417.342985,40.1859107 418.290401,39.7984918 419.033541,39.0201319 C419.780203,38.241772 420.150012,37.3119665 420.150012,36.2307155 C420.150012,35.0790246 419.780203,34.1316092 419.033541,33.3884692 C418.281644,32.6409341 417.2545,32.2369583 416.194817,32.2719982 L404.73426,32.2719982 L404.73426,24.1538103 C404.73867,23.6259805 404.537886,23.117074 404.174263,22.7344482 C403.829106,22.3401549 403.328175,22.1173757 402.804209,22.1249472 C402.265344,22.1249472 401.69126,22.431557 401.078434,23.0408613 L387.286319,36.5300847 C386.677015,37.0020314 386.370602,37.5796378 386.370602,38.25586 C386.370602,38.7947245 386.560789,39.2525833 386.93412,39.6223923 C387.293044,39.9893275 387.78745,40.1919318 388.300652,40.1823887 L395.503123,40.1823887 L395.503123,71.6267192 C395.503123,80.551443 400.437431,85.0138048 410.313093,85.0138048 L410.313093,85.0138048 Z M441.22208,85.0138048 C448.935239,85.0138048 455.28891,82.4427518 460.293659,77.3076898 L460.293659,79.9421386 C460.293659,81.2276651 460.733907,82.3089162 461.610883,83.1894138 C462.491381,84.0699114 463.572632,84.5066382 464.858158,84.5066382 C466.143685,84.5066382 467.242546,84.0699114 468.154741,83.1894138 C469.066937,82.3089162 469.524796,81.2276651 469.524796,79.9421386 L469.524796,51.2379167 C469.524796,47.7229702 468.764046,44.4580851 467.242546,41.4467833 C465.721046,38.4390035 463.354268,35.9876981 460.142213,34.0963893 C456.930158,32.2015584 452.992572,31.254143 448.322413,31.254143 C442.370249,31.254143 436.523745,32.4727517 430.775857,34.9064471 C429.014862,35.6495871 428.137886,36.9351136 428.137886,38.7630266 C428.137886,39.8442777 428.511217,40.7564732 429.254357,41.4996131 C429.997497,42.2427531 430.874473,42.6160841 431.892328,42.6160841 C432.230439,42.6160841 432.667166,42.5456443 433.209552,42.4118087 C435.643248,41.6017509 437.85858,40.9924465 439.855548,40.5874176 C442.111896,40.1574174 444.405475,39.9533078 446.702298,39.9781133 C451.365413,39.9781133 454.799354,40.9607486 456.997076,42.9189753 C459.194798,44.880724 460.293659,48.0963012 460.293659,52.5551411 L460.293659,53.3651989 L448.019522,53.3651989 C440.376803,53.3651989 434.579607,54.8550008 430.620889,57.8310827 C426.669216,60.8071646 424.689857,64.7975798 424.689857,69.7988062 C424.689857,72.8418059 425.432997,75.5326066 426.922799,77.8641643 C428.386836,80.1765953 430.479646,82.0238387 432.955969,83.1894138 C435.491802,84.4080225 438.249521,85.0138048 441.22208,85.0138048 L441.22208,85.0138048 Z M444.673631,76.8991389 C440.817052,76.8991389 438.062855,76.1595209 436.403998,74.6697189 C434.748662,73.179917 433.920994,71.2181683 433.920994,68.7879949 C433.920994,63.4451355 439.02788,60.7719447 449.238131,60.7719447 L460.293659,60.7719447 L460.293659,69.2951616 C458.318018,71.522047 455.944798,73.3613817 453.295464,74.7190268 C450.644234,76.1433389 447.683215,76.8932703 444.673631,76.9026609 L444.673631,76.8991389 Z M486.437394,84.5066382 C487.72292,84.5066382 488.821781,84.0699114 489.733977,83.1894138 C490.649694,82.3089162 491.104031,81.2276651 491.104031,79.9421386 L491.104031,49.1071125 C492.832284,46.4296076 495.159352,44.1905578 497.901472,42.5667762 C500.605265,40.9777295 503.690158,40.1535494 506.826196,40.1823887 L507.333363,40.1823887 C508.685807,40.1823887 509.798756,39.7773598 510.679254,38.96378 C511.559751,38.1537222 512,37.1041691 512,35.8186426 C512,34.5366381 511.577361,33.451865 510.732083,32.5748894 C509.902094,31.7003706 508.739317,31.220149 507.534116,31.254143 L507.02695,31.254143 C501.145226,31.254143 495.837586,34.4345004 491.104031,40.7916931 L491.104031,36.4279469 C491.104031,35.1424204 490.646172,34.0435594 489.733977,33.1313639 C488.87142,32.2390961 487.678288,31.7432324 486.437394,31.7613096 C485.151867,31.7613096 484.070616,32.2191684 483.190118,33.1348859 C482.309621,34.0435594 481.872894,35.1424204 481.872894,36.4279469 L481.872894,79.9421386 C481.872894,81.2276651 482.313143,82.3089162 483.190118,83.1894138 C484.070616,84.0699114 485.151867,84.5066382 486.437394,84.5066382 L486.437394,84.5066382 Z" fill="#000000"/>
  </g>
</svg>

<svg width="512" height="96" xmlns="http://www.w3.org/2000/svg" preserveAspectRatio="xMidYMid"><path d="M38.039 9.506v33.283a9.506 9.506 0 1 0 19.011 0V20.646a28.532 28.532 0 1 1-29.665 6.737 9.516 9.516 0 0 0-13.458-13.457c-16.04 16.04-18.515 41.176-5.913 60.037 12.603 18.86 36.774 26.192 57.73 17.51 20.957-8.68 32.863-30.957 28.436-53.204C89.754 16.02 70.228-.001 47.545 0a9.506 9.506 0 0 0-9.506 9.506Z" fill="#4678EB"/><path d="M162.397 85.014c7.91 0 15.655-1.892 23.227-5.678 1.148-.542 2.078-1.373 2.79-2.486.711-1.117 1.063-2.385 1.063-3.804V50.02c0-1.352-.472-2.5-1.42-3.448a4.695 4.695 0 0 0-3.447-1.42h-19.984c-1.148 0-2.127.406-2.94 1.22-.81.81-1.216 1.789-1.216 2.94 0 1.149.405 2.131 1.215 2.941a4.013 4.013 0 0 0 2.941 1.219h16.737v18.356a36.604 36.604 0 0 1-17.751 4.466c-5.678 0-10.601-1.2-14.757-3.603a24.267 24.267 0 0 1-9.534-9.837c-2.198-4.159-3.297-8.875-3.297-14.15 0-5.749 1.166-10.7 3.497-14.864a23.368 23.368 0 0 1 9.686-9.48c4.128-2.163 8.759-3.248 13.898-3.248 3.719 0 7.17.475 10.347 1.423 3.177.944 6.357 2.366 9.534 4.261a4.75 4.75 0 0 0 2.131.504c1.286 0 2.317-.405 3.092-1.215.779-.81 1.17-1.796 1.17-2.945a4.26 4.26 0 0 0-.61-2.229 3.568 3.568 0 0 0-1.419-1.42 50.836 50.836 0 0 0-11.411-5.377c-3.959-1.286-8.573-1.927-13.849-1.927-6.558 0-12.524 1.522-17.902 4.565-5.375 3.043-9.619 7.336-12.728 12.883-3.11 5.544-4.667 11.9-4.667 19.068 0 7.033 1.486 13.306 4.462 18.815A32.033 32.033 0 0 0 143.832 80.4c5.41 3.078 11.598 4.614 18.561 4.614h.004Zm43.426-.507c1.285 0 2.384-.437 3.296-1.318.913-.88 1.37-1.961 1.37-3.247V49.107a20.558 20.558 0 0 1 6.798-6.54 17.3 17.3 0 0 1 8.925-2.385h.507c1.352 0 2.465-.405 3.346-1.218.88-.81 1.317-1.86 1.317-3.145 0-1.282-.423-2.367-1.268-3.244a4.244 4.244 0 0 0-3.194-1.32h-.508c-5.881 0-11.189 3.18-15.923 9.537v-4.364c0-1.286-.457-2.384-1.373-3.297a4.494 4.494 0 0 0-3.293-1.37c-1.286 0-2.367.458-3.247 1.374-.881.909-1.318 2.007-1.318 3.293v43.514c0 1.286.44 2.367 1.318 3.247.88.88 1.961 1.318 3.247 1.318Zm44.3.507c7.709 0 14.066-2.571 19.071-7.706v2.634c0 1.286.437 2.367 1.317 3.247.88.88 1.962 1.318 3.247 1.318 1.282 0 2.381-.437 3.297-1.318.912-.88 1.367-1.961 1.367-3.247V51.238c0-3.515-.761-6.78-2.283-9.791-1.521-3.008-3.888-5.46-7.1-7.35-3.212-1.895-7.15-2.843-11.816-2.843-5.952 0-11.799 1.219-17.547 3.652-1.76.744-2.638 2.03-2.638 3.857 0 1.081.374 1.993 1.117 2.737.743.743 1.62 1.116 2.638 1.116.338 0 .774-.07 1.317-.204 2.434-.81 4.649-1.42 6.642-1.825 2.257-.43 4.55-.634 6.847-.609 4.667 0 8.1.983 10.298 2.941 2.198 1.962 3.297 5.177 3.297 9.636v.81H256.92c-7.643 0-13.44 1.49-17.399 4.466-3.955 2.976-5.93 6.967-5.93 11.968 0 3.043.742 5.734 2.229 8.065a14.398 14.398 0 0 0 6.036 5.325c2.536 1.219 5.29 1.825 8.266 1.825Zm3.451-8.115c-3.857 0-6.61-.74-8.27-2.23-1.655-1.49-2.483-3.45-2.483-5.881 0-5.343 5.107-8.016 15.314-8.016h11.059v8.523a23.967 23.967 0 0 1-7.002 5.424 18.339 18.339 0 0 1-8.622 2.184l.004-.004Zm55.658 7.608a5.684 5.684 0 0 0 3.346-1.064c1.018-.711 1.76-1.606 2.233-2.687l17.652-42.197a5.67 5.67 0 0 0 .507-2.131c0-1.286-.44-2.384-1.32-3.297a4.332 4.332 0 0 0-3.244-1.37c-.88 0-1.708.254-2.487.761-.775.507-1.338 1.134-1.673 1.877l-15.521 39.359-15.518-39.359a4.427 4.427 0 0 0-1.673-1.877 4.473 4.473 0 0 0-2.487-.76c-1.285 0-2.366.457-3.243 1.373-.88.909-1.321 2.007-1.321 3.293 0 .61.169 1.32.507 2.13l17.649 42.194c.475 1.085 1.218 1.98 2.233 2.691a5.7 5.7 0 0 0 3.346 1.064h1.014Zm43.796.507c7.71 0 14.063-2.571 19.068-7.706v2.634c0 1.286.44 2.367 1.32 3.247.881.88 1.959 1.318 3.244 1.318 1.286 0 2.385-.437 3.297-1.318.916-.88 1.37-1.961 1.37-3.247V51.238c0-3.515-.76-6.78-2.282-9.791-1.522-3.008-3.888-5.46-7.1-7.35-3.213-1.895-7.15-2.843-11.817-2.843-5.952 0-11.798 1.219-17.55 3.652-1.757.744-2.634 2.03-2.634 3.857 0 1.081.37 1.993 1.113 2.737.746.743 1.623 1.116 2.641 1.116.335 0 .775-.07 1.317-.204 2.43-.81 4.65-1.42 6.643-1.825 2.256-.43 4.55-.634 6.847-.609 4.666 0 8.1.983 10.294 2.941 2.198 1.962 3.297 5.177 3.297 9.636v.81h-12.274c-7.643 0-13.44 1.49-17.395 4.466s-5.935 6.967-5.935 11.968c0 3.043.747 5.734 2.233 8.065a14.398 14.398 0 0 0 6.037 5.325c2.536 1.219 5.29 1.825 8.266 1.825Zm3.448-8.115c-3.853 0-6.61-.74-8.266-2.23-1.655-1.49-2.487-3.45-2.487-5.881 0-5.343 5.107-8.016 15.317-8.016h11.06v8.523a23.967 23.967 0 0 1-7.002 5.424 18.339 18.339 0 0 1-8.622 2.184v-.004Zm53.837 8.115c2.973 0 5.78-.606 8.418-1.825 1.556-.81 2.331-1.993 2.331-3.55a3.441 3.441 0 0 0-1.113-2.585 3.575 3.575 0 0 0-2.536-1.067c-.475 0-.862.035-1.169.102a33.74 33.74 0 0 0-.86.204c-1.315.4-2.682.604-4.057.606-1.894 0-3.465-.352-4.719-1.064-1.25-.71-1.874-2.384-1.874-5.022V40.186h11.46c1.149 0 2.096-.388 2.84-1.166.746-.778 1.116-1.708 1.116-2.79 0-1.151-.37-2.098-1.116-2.842a3.846 3.846 0 0 0-2.84-1.116h-11.46v-8.118a2.036 2.036 0 0 0-.56-1.42 1.786 1.786 0 0 0-1.37-.61c-.539 0-1.113.308-1.726.917l-13.792 13.49c-.609.471-.915 1.049-.915 1.725 0 .539.19.997.563 1.366.359.367.853.57 1.367.56h7.202v31.445c0 8.924 4.934 13.387 14.81 13.387Zm30.91 0c7.712 0 14.066-2.571 19.07-7.706v2.634c0 1.286.44 2.367 1.318 3.247.88.88 1.962 1.318 3.247 1.318 1.286 0 2.385-.437 3.297-1.318.912-.88 1.37-1.961 1.37-3.247V51.238c0-3.515-.761-6.78-2.282-9.791-1.522-3.008-3.889-5.46-7.1-7.35-3.213-1.895-7.15-2.843-11.82-2.843-5.953 0-11.8 1.219-17.547 3.652-1.761.744-2.638 2.03-2.638 3.857 0 1.081.373 1.993 1.116 2.737.743.743 1.62 1.116 2.638 1.116.338 0 .775-.07 1.318-.204 2.433-.81 4.649-1.42 6.646-1.825 2.256-.43 4.55-.634 6.846-.609 4.663 0 8.097.983 10.295 2.941 2.198 1.962 3.297 5.177 3.297 9.636v.81H448.02c-7.643 0-13.44 1.49-17.4 4.466-3.95 2.976-5.93 6.967-5.93 11.968 0 3.043.743 5.734 2.233 8.065a14.398 14.398 0 0 0 6.033 5.325c2.536 1.219 5.294 1.825 8.266 1.825Zm3.45-8.115c-3.856 0-6.61-.74-8.269-2.23-1.655-1.49-2.483-3.45-2.483-5.881 0-5.343 5.107-8.016 15.317-8.016h11.056v8.523a23.967 23.967 0 0 1-6.999 5.424 18.339 18.339 0 0 1-8.621 2.184v-.004Zm41.764 7.608c1.286 0 2.385-.437 3.297-1.318.916-.88 1.37-1.961 1.37-3.247V49.107a20.558 20.558 0 0 1 6.797-6.54 17.3 17.3 0 0 1 8.925-2.385h.507c1.353 0 2.466-.405 3.346-1.218.88-.81 1.321-1.86 1.321-3.145 0-1.282-.423-2.367-1.268-3.244a4.244 4.244 0 0 0-3.198-1.32h-.507c-5.882 0-11.19 3.18-15.923 9.537v-4.364c0-1.286-.458-2.384-1.37-3.297a4.494 4.494 0 0 0-3.297-1.37c-1.285 0-2.366.458-3.247 1.374-.88.909-1.317 2.007-1.317 3.293v43.514c0 1.286.44 2.367 1.317 3.247.88.88 1.962 1.318 3.247 1.318Z"/></svg>
